X: 30436
T: Old Town
R: reel
M: 4/4
K: Gmajor
M:2/4
"intro" BB/c/ BB|c/B/A/B/ c2|BG/A/ GB|A/G/F/G/ A2|
BB/c/ BB|c/B/A/B/ c2|B/A/G A/G/F|G2- G2||
"dance" DG GG|A/G/F/G/ Az|BG/A/ GB|A/G/F/G/ Az|
DG/A/ GG|AA/B/ cz|BG AF|G2- G2|
DG GG|A/G/F/G/ Ac|BG/A/ GB|A/G/F/G/ A2|
D2 GA G2 G2|AGAB c4|BA G2 AG F2|GG G||
B/c/|d2B/c/ dB|c/B/A/B/ cA|BG/A/ GB|A/G/F/G/ AB/c/|
d2B/c/ dB|c/B/A/B/ cA|B/A/G A/G/F|GG G2||

